X:15
T:Galliard: The New-Yeere's Gift
C:Anthony Holborne, 1599
M:6/4
L:1/8
K:C major
 |:"G"g2"Dsus4"g2"D"^f2 "G"g3=f/e/d2 | "Em"g2"Dsus4"g2"D"^f2 "G"g6 | \
"C"e2e2"G"d2 "C"e3d"F"c2 | "Dm Asus4"d4"A"^c2 "D"d6 ::
"D"A2d2"A"e2 "D"^f2"Em"g2"D"a2 | "G"g2"Dsus4"g2"D"^f2 "G"g3=f/e/d2 |\
"C"g2"Dm"f4 "C Am"e4"Bm"d2 | "Am"c2"E"B4 "A"A6 
::"Am"e2"D"a4 "G"d2"Em"g4 | "D"^f2"Asus4"ed"A"e2 "D"d6 | \
"G"d2"Em"g4 "F"c2"Dm"f4 | "C"e2"G"dcd2 "C"e3d"Am"cB | 
"D"A2"G"d4 "C"G2"Am"c4 | "G"B2"Dsus4"AG"D"A2 "G"G3B"Am"AG | "C Dsus4"G4"D"^F2 "G"G6 :| 

